X: 1
T: Jack's Morning Feast
M: 6/8
L: 1/8
R: jig
K: Gmaj
BAB cde | def gdc | BAB cAG | FGA AFD | 
BAB cde | def gdc | BAB cAF | AGF G3 :|
bgb agf | gfe dBd | bgb agf | efg afd | 
bgb agf | gfe dBd | cde dBG | AGF G3 :|
dfg afd | aba afe | dfg afd | bc'b a2 f |
dfg afd | aba afd | d (3Bcd cde | dBG G3 |
dfg afd | aba afe | dfg afd | ed^c d2=c |
BAB cde | def gab | c'ba agf | gdB G3 |
